public/img/feature-2.svg

<svg width="589" height="514" viewBox="0 0 589 514" fill="none" xmlns="http://www.w3.org/2000/svg">
<path fill-rule="evenodd" clip-rule="evenodd" d="M178.916 119.657C169.832 124.131 161.042 129.142 152.657 134.53L329.392 135.467C327.769 133.792 326.159 132.1 324.551 130.411C321.927 127.655 319.308 124.904 316.643 122.238L178.916 119.657ZM204.435 108.872L301.54 109.149C293.415 103.435 284.27 99.3838 273.072 98.5647C250.093 96.8837 226.737 101.005 204.435 108.872ZM339.108 144.922L135.363 146.578C130.145 150.48 124.929 154.524 119.792 158.7L361.192 159.402C352.842 156.001 345.703 150.836 339.108 144.922ZM420.979 159.575L532.501 159.9C529.934 157.463 527.08 155.211 523.915 153.171C501.847 138.943 472.445 146.536 442.194 154.349C435.141 156.17 428.042 158.004 420.979 159.575ZM541.399 170.756L108.868 167.904C103.184 172.878 97.6742 178.016 92.4509 183.307L545.086 177.506C543.995 175.178 542.769 172.925 541.399 170.756ZM548.583 186.641L83.0809 193.335C80.7547 195.976 78.5116 198.65 76.3643 201.356L551.727 201.91C551.102 196.64 550.078 191.524 548.583 186.641ZM552.236 207.475L68.8428 211.57C65.9406 215.845 63.3016 220.192 60.9721 224.605L552.094 226.093C552.555 219.802 552.637 213.557 552.236 207.475ZM550.043 242.859L56.6992 233.614C54.4075 239.067 52.6154 244.612 51.405 250.241L548.12 252.874C548.833 249.563 549.479 246.219 550.043 242.859ZM546.599 259.484L49.6747 263.522C49.6637 263.77 49.6539 264.017 49.6453 264.265C49.5221 267.806 49.647 271.3 50.0018 274.745L541.906 276.174C542.228 275.247 542.531 274.311 542.814 273.367C544.163 268.872 545.441 264.226 546.599 259.484ZM538.218 284.9L50.9944 281.472C52.1353 287.41 53.9494 293.191 56.3375 298.804L534.06 292.273C535.571 289.87 536.963 287.415 538.218 284.9ZM527.948 300.948L60.9113 308.144C62.4597 310.937 64.1458 313.684 65.9559 316.383L513.524 316.942C518.747 311.776 523.636 306.484 527.948 300.948ZM507.347 322.868L73.3396 326.329C76.8134 330.59 80.5799 334.716 84.5779 338.7L488.462 339.852C489.869 338.599 491.278 337.348 492.685 336.099C497.647 331.698 502.588 327.314 507.347 322.868ZM471.764 355.315L94.896 348.253C101.589 354.031 108.713 359.457 116.042 364.506L461.314 366.336C464.617 362.559 468.127 358.897 471.764 355.315ZM455.022 374.151L136.356 376.74C153.062 383.869 173.334 383.303 193.756 382.733C214.699 382.148 235.801 381.558 253.38 389.258L445.163 389.816C448.209 384.315 451.453 379.038 455.022 374.151ZM439.708 400.241L269.397 399.118C273.847 402.699 277.961 406.747 281.851 411.078L435.4 409.11C436.815 406.137 438.246 403.174 439.708 400.241ZM426.458 427.867L296.664 429.734C298.072 431.657 299.469 433.586 300.861 435.509C302.215 437.379 303.566 439.244 304.918 441.092L419.484 441.226C421.907 436.926 424.209 432.444 426.458 427.867ZM413.88 450.442L312.65 451.299C317.318 457.172 322.161 462.616 327.438 467.207L399.525 467.426C404.936 462.65 409.628 456.867 413.88 450.442Z" fill="white"/>
<path fill-rule="evenodd" clip-rule="evenodd" d="M254.504 67.0013C297.819 70.1698 310.434 121.698 351.991 130.745C401.524 141.528 465.432 95.8726 505.348 121.608C543.103 145.95 536.698 200.309 524.247 241.803C512.695 280.3 468.399 304.144 440.649 337.22C408.877 375.091 402.72 444.073 350.088 449.39C293.821 455.073 283.215 379.5 235.396 357.954C198.131 341.164 144.705 362.379 110.672 341.515C68.9612 315.945 29.4929 278.254 31.0778 232.701C32.6821 186.591 75.8737 145.358 118.599 113.671C156.854 85.3003 206.502 63.4898 254.504 67.0013Z" fill="#C9DF55"/>
</svg>

<svg width="589" height="514" fill="none" xmlns="http://www.w3.org/2000/svg"><path fill-rule="evenodd" clip-rule="evenodd" d="M178.916 119.657c-9.084 4.474-17.874 9.485-26.259 14.873l176.735.937c-1.623-1.675-3.233-3.367-4.841-5.056-2.624-2.756-5.243-5.507-7.908-8.173l-137.727-2.581zm25.519-10.785l97.105.277c-8.125-5.714-17.27-9.765-28.468-10.584-22.979-1.681-46.335 2.44-68.637 10.307zm134.673 36.05l-203.745 1.656a488.075 488.075 0 00-15.571 12.122l241.4.702c-8.35-3.401-15.489-8.566-22.084-14.48zm81.871 14.653l111.522.325a58.331 58.331 0 00-8.586-6.729c-22.068-14.228-51.47-6.635-81.721 1.178-7.053 1.821-14.152 3.655-21.215 5.226zm120.42 11.181l-432.531-2.852c-5.684 4.974-11.194 10.112-16.417 15.403l452.635-5.801a61.475 61.475 0 00-3.687-6.75zm7.184 15.885l-465.502 6.694a203.968 203.968 0 00-6.717 8.021l475.363.554c-.625-5.27-1.649-10.386-3.144-15.269zm3.653 20.834L68.843 211.57c-2.902 4.275-5.541 8.622-7.87 13.035l491.121 1.488c.461-6.291.543-12.536.142-18.618zm-2.193 35.384l-493.344-9.245c-2.291 5.453-4.084 10.998-5.294 16.627l496.715 2.633a222.866 222.866 0 001.923-10.015zm-3.444 16.625l-496.924 4.038a76.29 76.29 0 00.327 11.223l491.904 1.429c.322-.927.625-1.863.908-2.807a276.943 276.943 0 003.785-13.883zm-8.381 25.416l-487.224-3.428c1.141 5.938 2.955 11.719 5.343 17.332l477.723-6.531a85.962 85.962 0 004.158-7.373zm-10.27 16.048l-467.037 7.196a114.308 114.308 0 005.045 8.239l447.568.559c5.223-5.166 10.112-10.458 14.424-15.994zm-20.601 21.92L73.34 326.329c3.473 4.261 7.24 8.387 11.238 12.371l403.884 1.152c1.407-1.253 2.816-2.504 4.223-3.753 4.962-4.401 9.903-8.785 14.662-13.231zm-35.583 32.447l-376.868-7.062c6.693 5.778 13.817 11.204 21.146 16.253l345.272 1.83c3.303-3.777 6.813-7.439 10.45-11.021zm-16.742 18.836l-318.666 2.589c16.706 7.129 36.978 6.563 57.4 5.993 20.943-.585 42.045-1.175 59.624 6.525l191.783.558c3.046-5.501 6.29-10.778 9.859-15.665zm-15.314 26.09l-170.311-1.123c4.45 3.581 8.564 7.629 12.454 11.96L435.4 409.11a542.34 542.34 0 014.308-8.869zm-13.25 27.626l-129.794 1.867c1.408 1.923 2.805 3.852 4.197 5.775 1.354 1.87 2.705 3.735 4.057 5.583l114.566.134c2.423-4.3 4.725-8.782 6.974-13.359zm-12.578 22.575l-101.23.857c4.668 5.873 9.511 11.317 14.788 15.908l72.087.219c5.411-4.776 10.103-10.559 14.355-16.984z" fill="#fff"/><path fill-rule="evenodd" clip-rule="evenodd" d="M254.504 67.001c43.315 3.169 55.93 54.697 97.487 63.744 49.533 10.783 113.441-34.872 153.357-9.137 37.755 24.342 31.35 78.701 18.899 120.195-11.552 38.497-55.848 62.341-83.598 95.417-31.772 37.871-37.929 106.853-90.561 112.17-56.267 5.683-66.873-69.89-114.692-91.436-37.265-16.79-90.691 4.425-124.724-16.439-41.71-25.57-81.18-63.261-79.594-108.814 1.604-46.11 44.796-87.343 87.521-119.03 38.255-28.37 87.903-50.181 135.905-46.67z" fill="#C9DF55"/></svg>
